X: 2
T: Jenny's Bawbee
T: Polly Put the Kettle On
M: 4/4
L: 1/8
R: strathspey
K: Gmaj
B2 cA B<G G2 | cBAG F<D D2 | B2 cA B<GGF | EG FA G4 :|
dedc B<G G2 | cBAG F<D D2 | dedc B<GGF | EG FA G4 :|
